X:1
T:The Cry of the Weary
T:The Cry of the Weary
T:William Howard Doane, 1884
T:Horatius Bonar, 1861
T:Public Domain Courtesy of the Cyber Hymnal™
T:Public Domain Courtesy of the Cyber Hymnal™
C:William Howard Doane, 1884
Z:Public Domain
Z:Courtesy of the Cyber Hymnal™
%%score ( 1 2 ) ( 3 4 )
L:1/8
Q:1/4=98
M:3/4
K:F
V:1 treble 
V:2 treble 
V:3 bass 
V:4 bass 
V:1
 F2 | [FA]3 [FB] [FA]F | [FA]4 [FA]2 | [Fc]3 [Fd] [Fc][FA] | [Fc]4 [FA]2 | [EG]3 [EG] [FA][GB] | %6
w: 1.~O|Light of light, shine|in! Cast|out this night of|sin; Crea-|te true day with-|
w: 2.~O|Joy of joys, come|in! End|Thou this grief of|sin; Cre-|ate calm peace with-|
w: 3.~O|Life of life, pour|in! Ex-|pel this death of|sin; A-|wake true life with-|
w: 4.~O|Love of love, flow|in! This|hate- ful root of|sin Pluck|up, des- troy with-|
w: 5.~O|Heav’n of heav’ns, des-|cend! This|cloud- y cur- tain|rend, And|all earth’s tur- moil|
w: 6.~My|God and Lord, oh|come! Of|joys the joy and|sum, Make|in this heart Thy|
 [FA]4 [Fc]2 | [EG]3 [CE] [DF][=B,D] | C4 ||"^Refrain" [Ec]2 | [Fc]3 [G^c] [^Fd][FA] | %11
w: in; O|Light of light, shine|in!|||
w: in; O|Joy of joys, come|in!|||
w: in; O|Life of life, pour|in!|O|Light, all light ex-|
w: in; O|Love of love, flow|in!|||
w: end, O|Heav’n of heav’ns, des-|cend!|||
w: home; My|God and Lord, oh|come!|||
 [Ac]2 [GB]4 | [GB]3 [G=B] [Gc][EG] [G_B]2 [FA]2 [FA]2 | [GA]3 [GA] [GB][GA] | [FA]2 [DF]2 [D^F]2 | %15
w: ||||
w: ||||
w: cell- ing,|Make my soul Thy dwell- ing; O|Joy, all grief dis-|pell- ing, To|
w: ||||
w: ||||
w: ||||
 [DG][DA] !fermata![DB]2 [CE]2 | [CF]4 x2 |] x4 |] %18
w: |||
w: |||
w: my poor heart come|in.||
w: |||
w: |||
w: |||
V:2
 F2 | x5 F | x6 | x6 | x6 | x6 | x6 | x6 | C4 || x2 | x6 | x6 | x12 | x6 | x6 | x6 | x6 |] x4 |] %18
V:3
 [F,A,]2 | [F,C]3 [F,D] [F,C][F,A,] | [F,C]4 [F,C]2 | [F,A,]3 [F,B,] [F,A,][F,C] | [F,A,]4 [F,C]2 | %5
 [C,C]3 [C,C] [C,C][C,C] | [F,C]4 [F,A,]2 | [G,C]3 [G,,G,] [G,,G,][G,,F,] | [C,E,]4 || (G,B,) | %10
 [F,A,]3 [_E,A,] [D,A,][D,D] | [G,D]2 [G,D]4 | [G,D]3 [F,D] [E,C][C,C] x6 | [F,C]2 [A,C]2 [F,C]2 | %14
 [E,^C]3 [E,C] [A,,C][A,,C] | [D,D]2 [D,A,]2 [C,A,]2 | [B,,G,][A,,^F,] !fermata![G,,G,]2 (G,B,) |] %17
 [F,A,]4 |] %18
V:4
 x2 | x6 | x6 | x6 | x6 | x6 | x6 | x6 | x4 || C,2 | x6 | x6 | x12 | x6 | x6 | x6 | x4 C,2 |] x4 |] %18

